X:1
T: Graines Jig
M:6/8
L:1/8
K:Ador
Bc |: dGF GDB, | G,A,G, B,DD | EcB ABG | FED cBA|
B/2c/2dB GAG | E/2F/2GE CEG | DFd cAF |1 AGF G2 B/2c/2 :|2 AGF G2 A|
|: BAB Ggf | ecA E3 | DFA f2 f | ed^c d2 =c |
B/2c/2dB Ggf | ecA E3 | DFd cAF |1 AGF G2 A :|2 AGF G2 D |
| GBd g3 | ecB c2 B | a^ce a2 g | fd^c def |
gdB Ggf | ecA E3 | DFd cAF |1 AGF G2 D :|2 AGF G3 |
